src/assets/svg/icons/fa/nuevos/classic/light/diagram-predecessor classic light.svg

<svg xmlns="http://www.w3.org/2000/svg" viewBox="0 0 512 512"><!--! Font Awesome Pro 6.4.0 by @fontawesome - https://fontawesome.com License - https://fontawesome.com/license (Commercial License) Copyright 2023 Fonticons, Inc. --><path d="M480 352c0-17.7-14.3-32-32-32L64 320c-17.7 0-32 14.3-32 32l0 64c0 17.7 14.3 32 32 32l384 0c17.7 0 32-14.3 32-32l0-64zm32 64c0 35.3-28.7 64-64 64L64 480c-35.3 0-64-28.7-64-64l0-64c0-35.3 28.7-64 64-64l384 0c35.3 0 64 28.7 64 64l0 64zM256 96c0-17.7-14.3-32-32-32l-32 0L64 64C46.3 64 32 78.3 32 96l0 64c0 17.7 14.3 32 32 32l160 0c17.7 0 32-14.3 32-32l0-64zm23.4-32c5.4 9.4 8.6 20.3 8.6 32l0 64c0 35.3-28.7 64-64 64L64 224c-35.3 0-64-28.7-64-64L0 96C0 60.7 28.7 32 64 32l128 0 32 0 144 0c35.3 0 64 28.7 64 64l0 89.4 36.7-36.7c6.2-6.2 16.4-6.2 22.6 0s6.2 16.4 0 22.6l-64 64c-6.2 6.2-16.4 6.2-22.6 0l-64-64c-6.2-6.2-6.2-16.4 0-22.6s16.4-6.2 22.6 0L400 185.4 400 96c0-17.7-14.3-32-32-32l-88.6 0zM96 112l96 0c8.8 0 16 7.2 16 16s-7.2 16-16 16l-96 0c-8.8 0-16-7.2-16-16s7.2-16 16-16z"/></svg>

<svg xmlns="http://www.w3.org/2000/svg" viewBox="0 0 512 512"><path d="M512 416C512 451.3 483.3 480 448 480H64C28.65 480 0 451.3 0 416V352C0 316.7 28.65 288 64 288H448C483.3 288 512 316.7 512 352V416zM448 320H64C46.33 320 32 334.3 32 352V416C32 433.7 46.33 448 64 448H448C465.7 448 480 433.7 480 416V352C480 334.3 465.7 320 448 320zM192 112C200.8 112 208 119.2 208 128C208 136.8 200.8 144 192 144H96C87.16 144 80 136.8 80 128C80 119.2 87.16 112 96 112H192zM279.4 64C284.9 73.41 288 84.34 288 96V160C288 195.3 259.3 224 224 224H64C28.65 224 0 195.3 0 160V96C0 60.65 28.65 32 64 32H368C403.3 32 432 60.65 432 96V185.4L468.7 148.7C474.9 142.4 485.1 142.4 491.3 148.7C497.6 154.9 497.6 165.1 491.3 171.3L427.3 235.3C421.1 241.6 410.9 241.6 404.7 235.3L340.7 171.3C334.4 165.1 334.4 154.9 340.7 148.7C346.9 142.4 357.1 142.4 363.3 148.7L400 185.4V96C400 78.33 385.7 64 368 64H279.4zM224 64H64C46.33 64 32 78.33 32 96V160C32 177.7 46.33 192 64 192H224C241.7 192 256 177.7 256 160V96C256 78.33 241.7 64 224 64z"/></svg>
